!!!COM: Frescobaldi, Girolamo
!!!CDT: 1583///-1643
!!!ONM: No. 30
!!!OTL: No. 30: Canzon Qinta &agrave; 3. Due Canti e Basso
!!!OPR: Canzoni da sonare a una, due, tre et quattro, libro primo
!!!PPP: Venezia
!!!PDT: 1634
!!!URL: http://icking-music-archive.org/ByComposer/Frescobaldi.html
!!!ONB: Andrea Friggi, ed.
**kern	**kern	**kern	**kern
!Basso ad Organo	!Basso	!Canto Secondo	!Canto Primo
*staff4	*staff3	*staff2	*staff1
*Icello	*Icello	*Ivioln	*Ivioln
*clefC1	*clefF4	*clefG2	*clefG2
*k[]	*k[]	*k[]	*k[]
*met(C)	*met(C)	*met(C)	*met(C)
*M4/4	*M4/4	*M4/4	*M4/4
*MM120	*MM120	*MM120	*MM120
=1-	=1-	=1-	=1-
2d/	1r	4dd\	1r
.	.	8dd\L	.
.	.	8dd\J	.
2a\	.	4.cc\	.
.	.	8cc\	.
=2	=2	=2	=2
2g\	1r	8b\L	4gg\
.	.	8a\	.
.	.	8b\	8gg\L
.	.	8cc\J	8gg\J
2d/	.	4a/	4.ff\
.	.	[4dd\	.
.	.	.	8ff\
=3	=3	=3	=3
4a\	2r	4dd\]	8ee\L
.	.	.	8dd\
4e/	.	2cc\	8ee\
.	.	.	8ff\J
*clefF4	*	*	*
4.G\	4G\	.	4dd\
.	8G\L	4b\	[4ee\
8G\	8G\J	.	.
=4	=4	=4	=4
2F\	4.F\	2r	8ee\L]
.	.	.	8dd\J
.	.	.	2dd\
.	8F\	.	.
2E\	8E\L	4gg\	.
.	8D\	.	.
.	8E\	8gg\L	[4cc\
.	8F\J	8gg\J	.
=5	=5	=5	=5
2D\	4.D\	4.ff\	4cc\]
.	.	.	4b\
.	8D\	8ff\	.
2C/	2C/	8ee\L	2cc\
.	.	8dd\	.
.	.	8ee\	.
.	.	8ff\J	.
=6	=6	=6	=6
4G\	1r	8dd\L	2r
.	.	8cc\	.
4GG/	.	8dd\	.
.	.	8ee\J	.
2AA/	.	8cc\L	8ee\L
.	.	8b\J	8dd\
.	.	8cc\L	8ee\
.	.	16dd\L	8ff\J
.	.	16cc\JJ	.
=7	=7	=7	=7
2BB/	1r	8b\L	8dd\L
.	.	8a\	8cc\
.	.	8b\	8dd\
.	.	8cc\J	8ee\J
2C/	.	4a/	8cc\L
.	.	.	8b\J
.	.	[4a/	8cc\L
.	.	.	16dd\L
.	.	.	16cc\JJ
=8	=8	=8	=8
1D	1r	8a/L]	4.b\
.	.	8g/J	.
.	.	2g/	.
.	.	.	16cc\LL
.	.	.	16b\JJ
.	.	.	2a/
.	.	4f#/	.
=9	=9	=9	=9
2GG/	2r	1g	1b
2G\	4G\	.	.
.	8G\L	.	.
.	8G\J	.	.
=10	=10	=10	=10
4.F\	4.F\	1r	2r
8F\	8F\	.	.
2E\	8E\L	.	8gg\L
.	8D\	.	8ff\
.	8E\	.	8gg\
.	8F\J	.	8aa\J
=11	=11	=11	=11
2D\	2D\	4dd\	8ff\L
.	.	.	8ee\
.	.	8dd\L	8ff\
.	.	8dd\J	8gg\J
4A\	2r	4.cc\	8ee\L
.	.	.	8dd\J
4AA/	.	.	8ee\L
.	.	8cc\	16ff\L
.	.	.	16ee\JJ
=12	=12	=12	=12
4BB/	2r	8b\L	4dd\
.	.	8a\	.
4GG/	.	8b\	2gg\
.	.	8cc\J	.
2D\	4D\	4.a/	.
.	8D\L	.	4ff\
.	8D\J	8b\	.
=13	=13	=13	=13
2C/	4.C/	8cc/L	2ee\
.	.	8g/J	.
.	.	4.a/	.
.	8C/	.	.
2BB/	8.BB/L	.	2dd\
.	.	8g/	.
.	16AA/Jk	.	.
.	8BB/L	[4g/	.
.	8C/J	.	.
=14	=14	=14	=14
2AA/	4.AA/	4g/]	8cc\L
.	.	.	8b\
.	.	4f#/	8cc\
.	8AA/	.	8dd\J
2GG/	2GG/	2g/	8b\L
.	.	.	8a\
.	.	.	8b\
.	.	.	8cc\J
=15	=15	=15	=15
2D\	1r	2r	4a/
.	.	.	2dd\
2E\	.	8gg\L	.
.	.	8ff\	.
.	.	8gg\	4cc#\
.	.	8aa\J	.
=16	=16	=16	=16
*	*clefC4	*	*
2D\	4d\	8ff\L	2dd\
.	.	8ee\	.
.	8d\L	8ff\	.
.	8d\J	8gg\J	.
4C/	4.c\	8ee\L	2r
.	.	8dd\J	.
4c\	.	8ee\L	.
.	8c\	16ff\L	.
.	.	16ee\JJ	.
=17	=17	=17	=17
2B\	8B\L	4.dd\	4r
.	8A\	.	.
.	8B\	.	4gg\
.	8c\J	8dd\	.
*	*clefF4	*	*
2A\	4.A\	2cc\	4gg\
.	.	.	4ff#\
.	8A\	.	.
=18	=18	=18	=18
2G\	2G\	4r	8gg\L
.	.	.	16ff\L
.	.	.	16ee\JJ
.	.	4dd\	8dd\L
.	.	.	8ee\J
2A\	2r	4dd\	8ff\L
.	.	.	8gg\J
.	.	4cc#\	4ee\
=19	=19	=19	=19
2D\	2r	8dd\L	2dd\
.	.	16cc\L	.
.	.	16b\JJ	.
.	.	8a/L	.
.	.	8b/J	.
2C/	8C/L	4cc\	2r
.	8BB/	.	.
.	8C/	[4a/	.
.	8D/J	.	.
=20	=20	=20	=20
2BB/	8BB/L	4a/]	4dd\
.	8AA/J	.	.
.	8BB/L	4g/	8dd\L
.	16C/L	.	8dd\J
.	16BB/JJ	.	.
2AA/	4.AA/	4g/	4.cc\
.	.	4f#/	.
.	8AA/	.	8cc\
=21	=21	=21	=21
2GG/	4GG/	2g/	8b\L
.	.	.	8a\
.	4G\	.	8b\
.	.	.	8cc\J
2D\	4G\	2r	4.a/
.	4F#\	.	.
.	.	.	8a/
=22	=22	=22	=22
2GG/	8G\L	2r	8g/L
.	16F\L	.	8a/
.	16E\JJ	.	.
.	8D\L	.	8b-/
.	8E\J	.	8cc/J
4FF/	4.F\	4aa\	2a/
4F\	.	8aa\L	.
.	8F\	8aa\J	.
=23	=23	=23	=23
2E\	2E\	4.gg\	2r
.	.	8gg\	.
2D\	2D\	8ff\L	4r
.	.	8ee\	.
.	.	8ff\	4dd\
.	.	8gg\J	.
=24	=24	=24	=24
2A\	2r	4.ee\	4dd\
.	.	.	4cc#\
.	.	8ee\	.
4D\	4r	8dd\L	8dd\L
.	.	8cc\J	16ccn\L
.	.	.	16b\JJ
[4A\	4A\	4dd\	8a/L
.	.	.	8b/J
=25	=25	=25	=25
4A\]	4A\	2ee\	4cc\
4E\	4G#\	.	4b\
2AA/	8A\L	8cc\L	2a/
.	16Gn\L	8b\	.
.	16F\JJ	.	.
.	8E\L	8cc\	.
.	8F\J	8dd\J	.
=26	=26	=26	=26
2GG/	4G\	8b\L	4r
.	.	8a\	.
.	4GG/	8b\	4gg\
.	.	8cc\J	.
2D\	2D\	4.a/	4gg\
.	.	.	4ff#\
.	.	8a/	.
=27	=27	=27	=27
2GG/	2GG/	8b\L	8gg\L
.	.	8cc\J	16ff\L
.	.	.	16ee\JJ
.	.	2dd\	8dd\L
.	.	.	8ee\J
2AA/	2AA/	.	8ff\L
.	.	.	8gg\J
.	.	4cc#\	4ee\
=28	=28	=28	=28
1D	1D	1dd	1ff#
=29	=29	=29	=29
*M3/1	*M3/1	*M3/1	*M3/1
0.D	0.r	1.dd	2.dd\
.	.	.	4a/
.	.	.	2dd\
.	.	4cc\	2ee\
.	.	4b\	.
.	.	1a	1ff#
=30	=30	=30	=30
0GG	2.G\	0b	1.gg
.	4D\	.	.
.	2G\	.	.
.	2A\	.	4ff\
.	.	.	4ee\
1BB	1B	1r	1dd
=31	=31	=31	=31
0AA	1.A	2.ee\	0cc
.	.	4b\	.
.	.	2ee\	.
.	4G\	2ff#\	.
.	4F\	.	.
1E	1E	1gg#	1r
=32	=32	=32	=32
1.F	2.F\	0aa	1.aa
.	4D\	.	.
.	2A\	.	.
2G\	2B\	.	4gg\
.	.	.	4ff\
1A	1c#	1r	1ee
=33	=33	=33	=33
1D	2.d\	1.aa	1.ff
.	4D\	.	.
1D	2F\	.	.
.	2G\	4gg\	4ee\
.	.	4ff\	4dd\
1A	1A	1ee	1cc#
=34	=34	=34	=34
0D	1.D	1.ff#	1.dd
.	2D\	2ff#\	2dd\
1D	1D	1ff#	1dd
=35	=35	=35	=35
2E\	2E\	2gg\	2b\
1C	1C	1ee	1cc
2D\	2D\	2ff\	2a/
1G	1G	1dd	1b
=36	=36	=36	=36
2E\	2E\	2ee\	2cc\
1F	1F	1cc	1a
2D\	2D\	2dd\	2b\
1E	1E	1b	1g#
=37	=37	=37	=37
*met(C)	*met(C)	*met(C)	*met(C)
*M4/4	*M4/4	*M4/4	*M4/4
2AA/	2AA/	2cc#\	2a/
2FF/	4r	4r	4r
.	4FF/	4aa\	[4ff\
=38	=38	=38	=38
2C/	2C/	4.gg\	4ff\]
.	.	.	2ee\
.	.	8aa\	.
2D\	2D\	[2ff\	.
.	.	.	4dd\
=39	=39	=39	=39
2.GG/	2.GG/	2ff\]	[2b\
.	.	[2ee\	8b\L]
.	.	.	8cc#\J
4BB-/	4BB-/	.	[4dd\
=40	=40	=40	=40
1AA	1AA	4ee\]	4dd\]
.	.	4ee\	8cc#\L
.	.	.	8b\J
.	.	2ee\	2cc#\
=41	=41	=41	=41
1D	1D	1ff#	1dd
=42	=42	=42	=42
*clefC4	*	*	*
2d\	1r	4.dd\	1r
.	.	8cc\	.
2G/	.	8b\L	.
.	.	16cc\L	.
.	.	16dd\JJ	.
.	.	8ee\L	.
.	.	8dd\J	.
=43	=43	=43	=43
4A\	1r	8cc\L	4.cc\
.	.	8a\J	.
4c\	.	4ee\	.
.	.	.	8b\
2d\	.	2r	8a\L
.	.	.	16b\L
.	.	.	16cc\JJ
.	.	.	8dd\L
.	.	.	8cc\J
=44	=44	=44	=44
2G/	1r	4.gg\	8b\L
.	.	.	8g\
.	.	.	8dd\
.	.	8ff\	8dd\J
2A\	.	8ee\L	2cc#\
.	.	16ff\L	.
.	.	16gg\JJ	.
.	.	8aa\L	.
.	.	8gg\J	.
=45	=45	=45	=45
*clefF4	*	*	*
2D\	4.D\	8ff#\L	2dd\
.	.	8dd\	.
.	.	8aa\	.
.	8C/	8aa\J	.
4BB/	8BB/L	4.gg\	2r
.	16C/L	.	.
.	16D/JJ	.	.
4E\	8E\L	.	.
.	8D\J	8ffn\	.
=46	=46	=46	=46
4C/	8C\L	4ee\	2r
.	8AA\	.	.
4AA/	8A\	8dd\L	.
.	8A\J	8cc\J	.
2GG/	2G\	8b\L	4.gg\
.	.	8cc\	.
.	.	8dd\	.
.	.	8b\J	8ff\
=47	=47	=47	=47
2C/	2C/	2cc\	8ee\L
.	.	.	16ff\L
.	.	.	16gg\JJ
.	.	.	8aa\L
.	.	.	8gg\J
4.D\	2r	2r	8ff#\L
.	.	.	8dd\J
.	.	.	4aa\
8C/	.	.	.
=48	=48	=48	=48
2BB/	4.G\	1r	4gg\
.	.	.	4dd\
.	8F\	.	.
2C#/	8E\L	.	2ee\
.	16F\L	.	.
.	16G\JJ	.	.
.	8A\L	.	.
.	8G\J	.	.
=49	=49	=49	=49
4D\	8F\L	4.dd\	2r
.	8D\	.	.
4A\	8A\	.	.
.	8A\J	8cc\	.
2G\	2G\	8b\L	4.gg\
.	.	16cc\L	.
.	.	16dd\JJ	.
.	.	8ee\L	.
.	.	8dd\J	8ff\
=50	=50	=50	=50
2C/	2C/	8cc\L	8ee\L
.	.	16dd\L	16ff\L
.	.	16ee\JJ	16gg\JJ
.	.	8ff\L	8aa\L
.	.	8ee\J	8gg\J
4D\	2r	8dd\L	8ff\L
.	.	8ff\	8dd\
4F\	.	8ee\	8aa\
.	.	8dd\J	8aa\J
=51	=51	=51	=51
*	*clefC4	*	*
2C/	4.c\	2ee\	8gg\L
.	.	.	8ff\
.	.	.	8ee\
.	8B\	.	8dd\J
4AA/	8A\L	2aa\	8cc\L
.	16B\L	.	16dd\L
.	16c\JJ	.	16ee\JJ
4D\	8d\L	.	8ff\L
.	8c\J	.	8ee\J
=52	=52	=52	=52
4BB/	8B\L	4gg\	8dd\L
.	8G\	.	8b\J
4C/	8c\	8ff\L	2ee\
.	8c\J	8ee\J	.
2BB/	2B\	2ff#\	.
.	.	.	4dd#\
=53	=53	=53	=53
1E	1E	1gg#	1ee
=54	=54	=54	=54
*	*clefF4	*	*
4A\	8A\L	4r	2r
.	8G\J	.	.
4F#\	8F#\L	8dd\L	.
.	16E\L	8cc\J	.
.	16F#\JJ	.	.
4G\	4G\	8b/L	4r
.	.	16a/L	.
.	.	16b/JJ	.
4C/	4C/	8cc\L	8ee\L
.	.	8b\J	8dd\J
=55	=55	=55	=55
4F\	8F\L	2a/	4cc\
.	8E\J	.	.
4D\	8D\L	.	8ff\L
.	16E\L	.	8ee\J
.	16F\JJ	.	.
4G\	2G\	4r	8dd\L
.	.	.	16ee\L
.	.	.	16ff\JJ
4E\	.	8ee\L	8gg\L
.	.	8dd\J	8ff\J
=56	=56	=56	=56
4A\	2r	8cc#\L	4ee\
.	.	16b\L	.
.	.	16cc#\JJ	.
4D\	.	8dd\L	4ff#\
.	.	8ccn\J	.
4G\	8G\L	4b\	2gg\
.	8F\J	.	.
4E\	8E\L	4b\	.
.	16D\L	.	.
.	16E\JJ	.	.
=57	=57	=57	=57
4C/	8C/L	4cc\	2r
.	8BB/J	.	.
4AA/	8AA/L	4ee\	.
.	16BB/L	.	.
.	16C/JJ	.	.
4D\	8D/L	4a/	4r
.	8C/J	.	.
4BB/	8BB/L	4b\	8gg\L
.	16AA/L	.	8ff\J
.	16BB/JJ	.	.
=58	=58	=58	=58
4C/	4C/	2r	8ee\L
.	.	.	16dd\L
.	.	.	16ee\JJ
4FF/	4FF/	.	8ff\L
.	.	.	8ee\J
2GG/	2GG/	4r	8dd\L
.	.	.	16cc\L
.	.	.	16dd\JJ
.	.	8gg\L	8ee\L
.	.	8ff\J	8dd\J
=59	=59	=59	=59
2AA/	4r	8ee\L	4cc#\
.	.	16dd\L	.
.	.	16ee\JJ	.
.	4AA/	8ff\L	4cc#\
.	.	8ee\J	.
2BB-/	2BB-/	8dd\L	2dd\
.	.	16ee\L	.
.	.	16ff\JJ	.
.	.	8gg\L	.
.	.	16ff\L	.
.	.	16gg\JJ	.
=60	=60	=60	=60
2FF#/	2FF#/	2aa\	4r
.	.	.	8dd\L
.	.	.	8cc\J
2GG/	2GG/	4dd\	8b/L
.	.	.	16a/L
.	.	.	16b/JJ
.	.	4ee\	8cc\L
.	.	.	8b\J
=61	=61	=61	=61
2D\	2D\	8.ff\L	4a/
.	.	16ee\Jk	.
.	.	8ff\L	2dd\
.	.	16gg\L	.
.	.	16ff\JJ	.
2AA/	2AA/	2ee\	.
.	.	.	4cc#\
=62	=62	=62	=62
1D	1D	1ff#	1dd
=63	=63	=63	=63
1GG	1r	2r	1r
.	.	[2dd\	.
=64	=64	=64	=64
2G\	1r	4dd\]	2r
.	.	8cc\L	.
.	.	8b\J	.
2G#\	.	2ee\	[2ee\
=65	=65	=65	=65
2A\	1r	2ff\	4ee\]
.	.	.	8dd\L
.	.	.	8cc\J
2D\	.	2ff#\	[2dd\
=66	=66	=66	=66
2E\	1r	2gg\	4dd\]
.	.	.	8cc\L
.	.	.	8b\J
2E\	.	2gg#\	2ee\
=67	=67	=67	=67
2F\	1r	2aa\	2r
2F#\	.	4r	2a/
.	.	[4aa\	.
=68	=68	=68	=68
2G\	1r	4aa\]	2b-\
.	.	8gg\L	.
.	.	8ff\J	.
2GG/	.	4gg\	2bn\
.	.	4ff\	.
=69	=69	=69	=69
2AA/	1r	2ee\	2cc\
2AA/	.	2cc#\	4r
.	.	.	[4aa\
=70	=70	=70	=70
2BB-/	1r	2dd\	4aa\]
.	.	.	8gg\L
.	.	.	8ff\J
2BBn/	.	2dd#\	4gg\
.	.	.	[4gg#\
=71	=71	=71	=71
2C#/	1r	2ee\	4gg#\]
.	.	.	8ff#\L
.	.	.	8gg#\J
2F#\	.	2a/	4aa\
.	.	.	[4dd\
=72	=72	=72	=72
2G\	1r	2r	4dd\]
.	.	.	8cc\L
.	.	.	8b\J
2G#\	.	2b\	[2ee\
=73	=73	=73	=73
2A\	1r	4cc\	4ee\]
.	.	4cc#\	4ee\
4F#\	.	[2dd\	[2ff#\
8E\L	.	.	.
8D\J	.	.	.
=74	=74	=74	=74
1AA	1r	4dd\]	4ff#\]
.	.	8cc\L	8ee\L
.	.	8b\J	8dd\J
.	.	2cc#\	2ee\
=75	=75	=75	=75
2D\	2r	2dd\	2ff#\
4.D\	4.D\	2r	4r
.	.	.	[4dd\
8C/	8C/	.	.
=76	=76	=76	=76
2BB/	4.BB/	2r	8dd\L]
.	.	.	8cc\J
.	.	.	4.b\
.	16C/LL	.	.
.	16D/JJ	.	.
4.E\	4.E\	4r	.
.	.	.	16cc\LL
.	.	.	16dd\JJ
.	.	[4g/	4ee\
8D\	8D\	.	.
=77	=77	=77	=77
4.C/	4.C/	8g/L]	4r
.	.	16a/L	.
.	.	16b/JJ	.
.	.	4.cc\	4.ee\
8AA/	8AA/	.	.
4.A\	4.A\	.	.
.	.	8a/	8dd\
.	.	4ee\	[4cc#\
8G\	8G\	.	.
=78	=78	=78	=78
2F#\	4.F#\	2a/	8cc#\L]
.	.	.	16b\L
.	.	.	16ccn\JJ
.	.	.	4.dd\
.	16E\LL	.	.
.	16F#\JJ	.	.
2G\	2G\	4r	.
.	.	.	8cc\
.	.	[4gg\	[4b\
=79	=79	=79	=79
4E\	1r	8gg\L]	8b/L]
.	.	8ff\J	8g/J
4.c\	.	4.ee\	4.gg\
8B\	.	16ff\LL	8ff\
.	.	16gg\JJ	.
4A\	.	[4aa\	[4ee\
=80	=80	=80	=80
2D\	4.D\	8aa\L]	8ee\L]
.	.	8a\J	16dd\L
.	.	.	16ee\JJ
.	.	4.dd\	4.ff\
.	16E\LL	.	.
.	16F\JJ	.	.
4.G\	4.G\	.	.
.	.	16ee\LL	8ee\
.	.	16ff\JJ	.
.	.	[4gg\	[4dd\
8F\	8F\	.	.
=81	=81	=81	=81
4.E\	4.E\	8gg\L]	8dd\L]
.	.	8ff\J	16ee\L
.	.	.	16ff\JJ
.	.	4.ee\	4.gg\
8C/	8C/	.	.
4.c\	4.c\	.	.
.	.	8dd\	8ff\
.	.	4cc\	[4ee\
8B\	8B\	.	.
=82	=82	=82	=82
4.A\	4.A\	4r	8ee\L]
.	.	.	8dd\J
.	.	4.a/	2cc\
8G\	8G\	.	.
2F#\	2F#\	.	.
.	.	16b\LL	.
.	.	16cc\JJ	.
.	.	[4dd\	4r
=83	=83	=83	=83
2G\	2G\	8dd\L]	4r
.	.	8cc\	.
.	.	8b\	4.gg\
.	.	8g\J	.
2E\	2r	4.gg\	.
.	.	.	8ff\
.	.	.	[4ee\
.	.	8ff\	.
=84	=84	=84	=84
4.C/	4.C/	4ee\	8ee\L]
.	.	.	8g\J
.	.	4.ee\	4.cc\
8BB/	8BB/	.	.
2AA/	4.AA/	.	.
.	.	16ff\LL	8b\
.	.	16gg\JJ	.
.	.	[4aa\	[4a/
.	16BB/LL	.	.
.	16C/JJ	.	.
=85	=85	=85	=85
4.D\	4.D\	8aa\L]	8a\L]
.	.	8gg\J	16b\L
.	.	.	16cc\JJ
.	.	4.ff#\	4dd\
8C/	8C/	.	.
4.BB/	4.BB/	.	4r
.	.	8dd\	.
.	.	4gg\	[4dd\
8GG/	8GG/	.	.
=86	=86	=86	=86
2G\	4.G\	4r	8dd\L]
.	.	.	8cc\J
.	.	4.g/	4.b\
.	8F\	.	.
2E\	4.E\	.	.
.	.	16a/LL	16cc\LL
.	.	16b/JJ	16dd\JJ
.	.	[4cc\	[4ee\
.	16F\LL	.	.
.	16G\JJ	.	.
=87	=87	=87	=87
4.A\	4.A\	8cc\L]	8ee\L]
.	.	8a\J	8dd\J
.	.	4.ee\	4.cc\
8G\	8G\	.	.
2F#\	4.F#\	.	.
.	.	8dd\	8a/
.	.	[4dd\	[4aa\
.	8D\	.	.
=88	=88	=88	=88
4G\	4G\	4dd\]	8aa\L]
.	.	.	8gg\J
4GG/	4GG/	8cc\L	2gg\
.	.	8b\J	.
2D\	2D\	2a/	.
.	.	.	4ff#\
=89	=89	=89	=89
0GG	0GG	0b	0gg
==	==	==	==
*-	*-	*-	*-
!!!ENC: Craig Stuart Sapp
!!!END: 2004/12/14/
